assets/images/avatars/user/custom-avatars/season-f1/speedometer-ice400.svg

<svg width="52" height="52" viewBox="0 0 52 52" fill="none" xmlns="http://www.w3.org/2000/svg">
<g clip-path="url(#clip0_26_81654)">
<rect width="52" height="52" fill="#50EEF6"/>
<path d="M26 52C40.3594 52 52 40.3594 52 26C52 11.6406 40.3594 0 26 0C11.6406 0 0 11.6406 0 26C0 40.3594 11.6406 52 26 52Z" fill="#50EEF6"/>
<path d="M25.9999 46.7669C37.4691 46.7669 46.7667 37.4693 46.7667 26.0002C46.7667 14.531 37.4691 5.2334 25.9999 5.2334C14.5308 5.2334 5.23315 14.531 5.23315 26.0002C5.23315 37.4693 14.5308 46.7669 25.9999 46.7669Z" fill="#50EEF6" stroke="#002140" stroke-width="0.65" stroke-miterlimit="10"/>
<path d="M42.4544 28.4923C42.4544 29.9287 42.2709 31.3201 41.9283 32.6491L41.7483 32.9122H37.9376V32.5453C38.3322 31.3201 38.5433 30.0117 38.5433 28.655C38.5433 21.6393 32.8567 15.9527 25.841 15.9527C18.8252 15.9527 13.1351 21.6393 13.1351 28.655C13.1351 30.0187 13.3497 31.3304 13.7478 32.5592V32.9122H9.86437V32.8499C9.55633 31.5866 9.22754 29.8491 9.22754 28.4923C9.22754 19.3169 16.6655 11.8789 25.841 11.8789C35.0164 11.8789 42.4544 19.3169 42.4544 28.4923Z" fill="#4BA6A6"/>
<path d="M38.5432 28.6555C38.5432 30.0122 38.332 31.3205 37.9375 32.5458V32.9127H13.7476V32.5596C13.3496 31.3309 13.135 30.0191 13.135 28.6555C13.135 21.6398 18.8217 15.9531 25.8408 15.9531C32.86 15.9531 38.5432 21.6398 38.5432 28.6555ZM27.6025 30.0018C28.5197 28.9704 31.3129 24.2287 30.278 23.3115C29.2431 22.3943 24.7748 25.6443 23.8576 26.6792C22.9404 27.7106 23.0339 29.2958 24.0687 30.213C25.1002 31.1302 26.6853 31.0367 27.6025 30.0018Z" fill="#E5FAFE"/>
<path d="M9.86437 32.8499C9.55633 31.5866 9.22754 29.8491 9.22754 28.4923C9.22754 19.3169 16.6655 11.8789 25.841 11.8789C35.0164 11.8789 42.4544 19.3169 42.4544 28.4923C42.4544 29.9287 42.2709 31.3201 41.9283 32.6491" stroke="#002140" stroke-width="0.65" stroke-linecap="round" stroke-linejoin="round"/>
<path d="M9.86426 32.9121H13.7476H37.9375H41.7482" stroke="#002140" stroke-width="0.65" stroke-linecap="round" stroke-linejoin="round"/>
<path d="M13.7476 32.5596C13.3496 31.3309 13.135 30.0191 13.135 28.6555C13.135 21.6398 18.8217 15.9531 25.8408 15.9531C32.86 15.9531 38.5432 21.6398 38.5432 28.6555C38.5432 30.0122 38.332 31.3205 37.9375 32.5458" stroke="#002140" stroke-width="0.65" stroke-linecap="round" stroke-linejoin="round"/>
<path d="M26.0037 16.1152V19.656" stroke="#002140" stroke-width="0.65" stroke-linecap="round" stroke-linejoin="round"/>
<path d="M13.8342 29.2471H17.2781" stroke="#002140" stroke-width="0.65" stroke-linecap="round" stroke-linejoin="round"/>
<path d="M17.0703 20.0537L19.5035 22.5596" stroke="#002140" stroke-width="0.65" stroke-linecap="round" stroke-linejoin="round"/>
<path d="M14.2046 24.2695L17.4996 25.3044" stroke="#002140" stroke-width="0.65" stroke-linecap="round" stroke-linejoin="round"/>
<path d="M21.2065 17.1846L22.6083 20.4173" stroke="#002140" stroke-width="0.65" stroke-linecap="round" stroke-linejoin="round"/>
<path d="M38.083 29.2471H34.6392" stroke="#002140" stroke-width="0.65" stroke-linecap="round" stroke-linejoin="round"/>
<path d="M34.8468 20.0537L32.4136 22.5596" stroke="#002140" stroke-width="0.65" stroke-linecap="round" stroke-linejoin="round"/>
<path d="M37.7127 24.2695L34.4177 25.3044" stroke="#002140" stroke-width="0.65" stroke-linecap="round" stroke-linejoin="round"/>
<path d="M30.7108 17.1846L29.3091 20.4173" stroke="#002140" stroke-width="0.65" stroke-linecap="round" stroke-linejoin="round"/>
<path d="M27.6026 30.001C26.6854 31.0359 25.1003 31.1293 24.0688 30.2121C23.034 29.2949 22.9405 27.7097 23.8577 26.6783C24.7749 25.6434 29.2432 22.3934 30.2781 23.3106C31.313 24.2278 28.5198 28.9696 27.6026 30.001Z" stroke="#002140" stroke-width="0.65" stroke-linecap="round" stroke-linejoin="round"/>
</g>
<defs>
<clipPath id="clip0_26_81654">
<rect width="52" height="52" fill="white"/>
</clipPath>
</defs>
</svg>

<svg xmlns="http://www.w3.org/2000/svg" width="52" height="52" fill="none" viewBox="0 0 52 52"><g clip-path="url(#a)"><path fill="#50eef6" d="M0 0h52v52H0z"/><path fill="#50eef6" d="M26 52c14.36 0 26-11.64 26-26S40.36 0 26 0 0 11.64 0 26s11.64 26 26 26"/><path fill="#50eef6" stroke="#002140" stroke-miterlimit="10" stroke-width=".65" d="M26 46.767c11.47 0 20.767-9.298 20.767-20.767S37.469 5.233 26 5.233C14.53 5.233 5.233 14.531 5.233 26c0 11.47 9.298 20.767 20.767 20.767Z"/><path fill="#4ba6a6" d="M42.454 28.492c0 1.437-.183 2.828-.526 4.157l-.18.263h-3.81v-.367c.394-1.225.605-2.533.605-3.89 0-7.016-5.686-12.702-12.702-12.702s-12.706 5.686-12.706 12.702c0 1.364.215 2.675.613 3.904v.353H9.864v-.062c-.308-1.263-.636-3-.636-4.358 0-9.175 7.438-16.613 16.613-16.613s16.613 7.438 16.613 16.613"/><path fill="#e5fafe" d="M38.543 28.656c0 1.356-.211 2.665-.605 3.89v.367h-24.19v-.353a12.7 12.7 0 0 1-.613-3.905c0-7.015 5.687-12.702 12.706-12.702s12.702 5.687 12.702 12.703m-10.94 1.346c.917-1.032 3.71-5.773 2.675-6.69s-5.503 2.332-6.42 3.367a2.503 2.503 0 1 0 3.744 3.323"/><path stroke="#002140" stroke-linecap="round" stroke-linejoin="round" stroke-width=".65" d="M9.864 32.85c-.308-1.263-.636-3-.636-4.358 0-9.175 7.438-16.613 16.613-16.613s16.613 7.438 16.613 16.613c0 1.437-.183 2.828-.526 4.157m-32.064.263h31.884"/><path stroke="#002140" stroke-linecap="round" stroke-linejoin="round" stroke-width=".65" d="M13.748 32.56a12.7 12.7 0 0 1-.613-3.905c0-7.015 5.687-12.702 12.706-12.702s12.702 5.687 12.702 12.703c0 1.356-.211 2.665-.605 3.89M26.004 16.115v3.541m-12.17 9.591h3.444m-.208-9.193 2.433 2.506m-5.298 1.71 3.295 1.034m3.707-8.119 1.401 3.232m15.475 8.83h-3.444m.208-9.193-2.433 2.506m5.299 1.71-3.295 1.034m-3.708-8.119-1.4 3.232"/><path stroke="#002140" stroke-linecap="round" stroke-linejoin="round" stroke-width=".65" d="M27.603 30.001a2.503 2.503 0 1 1-3.745-3.323c.917-1.035 5.385-4.285 6.42-3.367 1.035.917-1.758 5.659-2.675 6.69"/></g><defs><clipPath id="a"><path fill="#fff" d="M0 0h52v52H0z"/></clipPath></defs></svg>
